Pods/ProtonCore-UIFoundations/libraries/UIFoundations/Sources/Assets.xcassets/Images/IconSet/ic-money-bills.imageset/ic-money-bills.svg

<svg width="24" height="24" viewBox="0 0 24 24" fill="none" xmlns="http://www.w3.org/2000/svg">
<path fill-rule="evenodd" clip-rule="evenodd" d="M13.5 13.5C15.1569 13.5 16.5 12.1569 16.5 10.5C16.5 8.84315 15.1569 7.5 13.5 7.5C11.8431 7.5 10.5 8.84315 10.5 10.5C10.5 12.1569 11.8431 13.5 13.5 13.5ZM13.5 12C14.3284 12 15 11.3284 15 10.5C15 9.67157 14.3284 9 13.5 9C12.6716 9 12 9.67157 12 10.5C12 11.3284 12.6716 12 13.5 12Z" fill="#0C0C14"/>
<path fill-rule="evenodd" clip-rule="evenodd" d="M6.75 4.5C5.50736 4.5 4.5 5.50736 4.5 6.75V14.25C4.5 15.4926 5.50736 16.5 6.75 16.5H20.25C21.4926 16.5 22.5 15.4926 22.5 14.25V6.75C22.5 5.50736 21.4926 4.5 20.25 4.5H6.75ZM20.25 6H18.75C18.75 7.24264 19.7574 8.25 21 8.25V6.75C21 6.33579 20.6642 6 20.25 6ZM9.75 6H17.25C17.25 8.07107 18.9289 9.75 21 9.75V11.25C18.9289 11.25 17.25 12.9289 17.25 15H9.75C9.75 12.9289 8.07107 11.25 6 11.25V9.75C8.07107 9.75 9.75 8.07107 9.75 6ZM8.25 6H6.75C6.33579 6 6 6.33579 6 6.75V8.25C7.24264 8.25 8.25 7.24264 8.25 6ZM6 12.75C7.24264 12.75 8.25 13.7574 8.25 15H6.75C6.33579 15 6 14.6642 6 14.25V12.75ZM18.75 15H20.25C20.6642 15 21 14.6642 21 14.25V12.75C19.7574 12.75 18.75 13.7574 18.75 15Z" fill="#0C0C14"/>
<path d="M3 8.25C3 7.83579 2.66421 7.5 2.25 7.5C1.83579 7.5 1.5 7.83579 1.5 8.25V15.75C1.5 17.8211 3.17893 19.5 5.25 19.5H20.25C20.6642 19.5 21 19.1642 21 18.75C21 18.3358 20.6642 18 20.25 18H5.25C4.00736 18 3 16.9926 3 15.75V8.25Z" fill="#0C0C14"/>
</svg>

<svg xmlns="http://www.w3.org/2000/svg" width="24" height="24" viewBox="0 0 24 24">
  <g class="ic-money-bills">
    <g class="Icon">
      <path fill-rule="evenodd" d="M13.5 13.5a3 3 0 1 0 0-6 3 3 0 0 0 0 6Zm0-1.5a1.5 1.5 0 1 0 0-3 1.5 1.5 0 0 0 0 3Z"/>
      <path fill-rule="evenodd" d="M6.75 4.5A2.25 2.25 0 0 0 4.5 6.75v7.5a2.25 2.25 0 0 0 2.25 2.25h13.5a2.25 2.25 0 0 0 2.25-2.25v-7.5a2.25 2.25 0 0 0-2.25-2.25H6.75ZM20.25 6h-1.5A2.25 2.25 0 0 0 21 8.25v-1.5a.75.75 0 0 0-.75-.75ZM9.75 6h7.5A3.75 3.75 0 0 0 21 9.75v1.5A3.75 3.75 0 0 0 17.25 15h-7.5A3.75 3.75 0 0 0 6 11.25v-1.5A3.75 3.75 0 0 0 9.75 6Zm-1.5 0h-1.5a.75.75 0 0 0-.75.75v1.5A2.25 2.25 0 0 0 8.25 6ZM6 12.75A2.25 2.25 0 0 1 8.25 15h-1.5a.75.75 0 0 1-.75-.75v-1.5ZM18.75 15h1.5a.75.75 0 0 0 .75-.75v-1.5A2.25 2.25 0 0 0 18.75 15Z"/>
      <path d="M3 8.25a.75.75 0 0 0-1.5 0v7.5a3.75 3.75 0 0 0 3.75 3.75h15a.75.75 0 0 0 0-1.5h-15A2.25 2.25 0 0 1 3 15.75v-7.5Z"/>
    </g>
  </g>
</svg>
